gesture.svg

<svg fill="currentColor" viewBox="0 0 24 24"><path d="M4.59 6.89C5.29 6.18 6 5.54 6.3 5.67c.5.2 0 1.03-.3 1.52-.25.42-2.86 3.89-2.86 6.31 0 1.28.48 2.34 1.36 3a3 3 0 0 0 2.62.44c1.07-.31 1.95-1.4 3.06-2.77 1.21-1.49 2.82-3.44 4.08-3.44 1.63 0 1.65 1.01 1.74 1.77-3.76.66-5.36 3.69-5.36 5.39S12.08 21 13.85 21c1.65 0 4.29-1.35 4.69-6.12H21v-2.5h-2.47c-.15-1.65-1.09-4.2-4.03-4.2-2.25 0-4.18 1.91-4.94 2.82-.56.75-2.06 2.5-2.29 2.74-.27.3-.68.84-1.11.84-.45 0-.72-.83-.36-1.92.35-1.09 1.4-2.86 1.85-3.52.78-1.14 1.3-1.92 1.3-3.28C8.95 3.69 7.31 3 6.44 3 5.12 3 3.97 4 3.72 4.25c-.36.36-.66.66-.88.93zm9.29 11.66c-.31 0-.74-.26-.74-.72 0-.6.73-2.2 2.86-2.76-.29 2.69-1.42 3.48-2.12 3.48"/></svg>

<svg  viewBox="0 0 24 24" fill="currentColor"><path  d="M4.59,6.89C5.29,6.18 6,5.54 6.3,5.67C6.8,5.87 6.3,6.7 6,7.19C5.75,7.61 3.14,11.08 3.14,13.5C3.14,14.78 3.62,15.84 4.5,16.5C5.23,17.04 6.22,17.21 7.12,16.94C8.19,16.63 9.07,15.54 10.18,14.17C11.39,12.68 13,10.73 14.26,10.73C15.89,10.73 15.91,11.74 16,12.5C12.24,13.16 10.64,16.19 10.64,17.89C10.64,19.59 12.08,21 13.85,21C15.5,21 18.14,19.65 18.54,14.88H21V12.38H18.53C18.38,10.73 17.44,8.18 14.5,8.18C12.25,8.18 10.32,10.09 9.56,11C9,11.75 7.5,13.5 7.27,13.74C7,14.04 6.59,14.58 6.16,14.58C5.71,14.58 5.44,13.75 5.8,12.66C6.15,11.57 7.2,9.8 7.65,9.14C8.43,8 8.95,7.22 8.95,5.86C8.95,3.69 7.31,3 6.44,3C5.12,3 3.97,4 3.72,4.25C3.36,4.61 3.06,4.91 2.84,5.18L4.59,6.89M13.88,18.55C13.57,18.55 13.14,18.29 13.14,17.83C13.14,17.23 13.87,15.63 16,15.07C15.71,17.76 14.58,18.55 13.88,18.55Z"/></svg>
